src/assets/in-depo/Breakrooms.svg

<?xml version="1.0" encoding="UTF-8"?>
<svg width="24px" height="24px" viewBox="0 0 24 24" version="1.1" xmlns="http://www.w3.org/2000/svg" xmlns:xlink="http://www.w3.org/1999/xlink">
    <title>Foundations/Icons/Breakrooms@1x</title>
    <g id="💡-Icons" stroke="none" stroke-width="1" fill="none" fill-rule="evenodd">
        <g id="Foundations/Icons/Breakrooms" fill="#14232E">
            <path d="M19.0454545,2.5 L19.0909091,2.50300349 L19.1818182,2.56663985 L19.3,2.62118531 C19.3241983,2.64928442 19.3455172,2.6797399 19.3636364,2.7120944 C19.3706112,2.75117961 19.3706112,2.791191 19.3636364,2.83027621 L19.3636364,2.83027621 L19.3636364,2.9120944 C19.3636364,2.93936712 19.3272727,2.99391258 19.3272727,2.99391258 L19.3272727,2.99391258 L19.3272727,19.8848217 C19.3113902,19.9185262 19.2898687,19.9492711 19.2636364,19.9757308 C19.2474532,20.0039506 19.2258219,20.0286721 19.2,20.048458 C19.1818182,20.1030035 19.1181818,20.1030035 19.1181818,20.1030035 C19.0902665,20.1297194 19.055757,20.1485428 19.0181818,20.1575489 L19.0181818,20.1575489 L14.0727273,21.6393671 C13.5040561,21.8214599 12.8822239,21.7127242 12.4090909,21.348458 C12.0336345,21.0591614 11.7779512,20.6416532 11.6909091,20.1757308 L11.6909091,20.1757308 L8.20909091,20.1757308 C7.17333132,20.1757428 6.3322764,19.338751 6.32727273,18.3030035 L6.32727273,18.3030035 L6.32727273,15.0575489 C6.50173263,15.1229268 6.68642122,15.1567864 6.87272727,15.1575489 C7.05811709,15.1552338 7.24206221,15.1245763 7.41818182,15.0666399 L7.41818182,15.0666399 L7.41818182,18.3030035 C7.41816769,18.5119393 7.50178434,18.712188 7.65037579,18.8590715 C7.79896723,19.005955 8.0001692,19.0872512 8.20909091,19.0848217 L8.20909091,19.0848217 L11.6636364,19.0848217 L11.6636364,5.99391258 C11.6529768,5.15739256 12.1984383,4.41526813 13,4.17573076 L13,4.17573076 L15.1363636,3.53936712 L8.20909091,3.53936712 C8.0001692,3.53693764 7.79896723,3.61823376 7.65037579,3.76511726 C7.50178434,3.91200076 7.41816769,4.11224948 7.41818182,4.32118531 L7.41818182,4.32118531 L7.41818182,8.23936712 C7.06563886,8.11234008 6.67981568,8.11234008 6.32727273,8.23936712 L6.32727273,8.23936712 L6.32727273,4.32118531 C6.36159444,3.30681887 7.19414415,2.50242301 8.20909091,2.50300349 L8.20909091,2.50300349 L19,2.50300349 C19.0301707,2.49899884 19.0607384,2.49899884 19.0909091,2.50300349 Z M18.2818182,3.72118531 L13.2818182,5.22118531 C12.950108,5.32374202 12.722417,5.62855412 12.7181818,5.97573076 L12.7181818,5.97573076 L12.7181818,19.8848217 C12.722861,20.1328922 12.8423775,20.3647512 13.0417203,20.5124784 C13.241063,20.6602057 13.4976672,20.7070789 13.7363636,20.6393671 L13.7363636,20.6393671 L18.2818182,19.2757308 L18.2818182,3.72118531 Z M6.87272727,9.23027621 C7.02958682,9.22581255 7.18001935,9.29267145 7.28181818,9.4120944 L7.28181818,9.4120944 L7.41818182,9.56663985 L8.94545455,11.3302762 C8.96672453,11.3553589 8.98502752,11.3828134 9,11.4120944 C9.01836423,11.4341744 9.03365461,11.458639 9.04545455,11.4848217 C9.10050997,11.6156283 9.10050997,11.763106 9.04545455,11.8939126 C9.03365461,11.9200953 9.01836423,11.9445599 9,11.9666399 C8.98502752,11.9959209 8.96672453,12.0233754 8.94545455,12.048458 L8.94545455,12.048458 L7.41818182,13.7666399 L7.28181818,13.9211853 C7.18205263,14.0286141 7.04206324,14.0896549 6.89545455,14.0896549 C6.74884585,14.0896549 6.60885646,14.0286141 6.50909091,13.9211853 C6.39460724,13.81577 6.32880331,13.6677111 6.32727273,13.5120944 C6.32709892,13.381075 6.37571087,13.254684 6.46363636,13.1575489 L6.46363636,13.1575489 L7.32727273,12.1939126 L3.54545455,12.1939126 C3.24420832,12.1939126 3,11.9497043 3,11.648458 C3,11.3472118 3.24420832,11.1030035 3.54545455,11.1030035 L3.54545455,11.1030035 L7.32727273,11.1030035 L6.46363636,10.1302762 C6.37571087,10.0331412 6.32709892,9.90675012 6.32727273,9.77573076 C6.32727273,9.63106722 6.38474009,9.49232872 6.48703266,9.39003615 C6.58932523,9.28774358 6.72806373,9.23027621 6.87272727,9.23027621 Z" id="Combined-Shape"></path>
        </g>
    </g>
</svg>

<svg width="24" height="24" viewBox="0 0 24 24" xmlns="http://www.w3.org/2000/svg"><path d="M19.045 2.5l.046.003.09.064.119.054a.555.555 0 01.064.091c.007.04.007.08 0 .118v.082c0 .027-.037.082-.037.082v16.89a.327.327 0 01-.063.092.245.245 0 01-.064.072c-.018.055-.082.055-.082.055a.218.218 0 01-.1.055l-4.945 1.481a1.818 1.818 0 01-1.664-.29 1.927 1.927 0 01-.718-1.173H8.209a1.882 1.882 0 01-1.882-1.873v-3.245c.175.065.36.099.546.1.185-.003.37-.033.545-.091v3.236a.782.782 0 00.791.782h3.455V5.994A1.873 1.873 0 0113 4.176l2.136-.637H8.21a.782.782 0 00-.79.782V8.24a1.61 1.61 0 00-1.092 0V4.321A1.882 1.882 0 018.21 2.503H19a.345.345 0 01.09 0zm-.763 1.221l-5 1.5a.8.8 0 00-.564.755v13.909a.8.8 0 001.018.754l4.546-1.363V3.72zm-11.41 5.51a.518.518 0 01.41.181l.136.155 1.527 1.763c.022.025.04.053.055.082a.318.318 0 01.045.073.527.527 0 010 .409.318.318 0 01-.045.073.427.427 0 01-.055.081l-1.527 1.719-.136.154a.527.527 0 01-.773 0 .564.564 0 01-.182-.409c0-.13.049-.257.137-.354l.863-.964H3.545a.545.545 0 110-1.091h3.782l-.863-.973a.527.527 0 01-.137-.354.545.545 0 01.546-.546z" fill="#14232E" fill-rule="evenodd"/></svg>
